!!!OTL: Der Baer.
!!!ARE: Europa, Mitteleuropa, Deutschland
!!!SCT: A0460
!!!TXL: @@GMH
!!!YEM: Copyright 1995, estate of Helmut Schaffrath.
**kern	**text
*M3/2	*
*met(C|3)	*
*clefC4	*
*k[b-]	*
*F:ion	*
=1	=1
!LO:TX:a:t=jon. F.	!
!LO:N:vis=1	!
2ryy	.
!LO:N:vis=1	!
2ryy	.
!LO:N:vis=1	!
{2F	Es
=2	=2
!LO:N:vis=1	!
2F	gien-
!LO:N:vis=1	!
2F	-gen
!LO:N:vis=1	!
2G	drei
=3	=3
!LO:N:vis=0	!
1A	bauern
!LO:N:vis=1	!
2F	und
=4	=4
!LO:N:vis=1	!
2A	ſuch-
!LO:N:vis=1	!
2A	-ten
!LO:N:vis=1	!
2B-	ein
=5	=5
!LO:N:vis=0	!
1c}	bern,
!LO:N:vis=1	!
{2c	und
=6	=6
!LO:N:vis=1	!
2c	als
!LO:N:vis=1	!
2c	ſie
!LO:N:vis=1	!
2c	ihn
=7	=7
!LO:N:vis=1	!
2c	fan-
!LO:N:vis=1	!
2c	-den,
!LO:N:vis=1	!
2B-	da
=8	=8
!LO:N:vis=1	!
2A	het-
!LO:N:vis=1	!
2F	-tens
!LO:N:vis=1	!
2G	ihn
=9	=9
!LO:N:vis=0	!
1F}	gern.
!LO:N:vis=1	!
{2c	und
=10	=10
!LO:N:vis=1	!
2c	als
!LO:N:vis=1	!
2c	ſie
!LO:N:vis=1	!
2c	ihn
=11	=11
!LO:N:vis=1	!
2c	fan-
!LO:N:vis=1	!
2c	-den,
!LO:N:vis=1	!
2B-	da
=12	=12
!LO:N:vis=1	!
2A	het-
!LO:N:vis=1	!
2F	-tens
!LO:N:vis=1	!
2G	ihn
=13	=13
!LO:N:vis=0	!
1F}	gern.
==	==
!!!GTL: Scherz-, Spott- und Schandlieder
!!!AGN: Romanze, Ballade, Lied
!! Forster II 1540 No. 75.
!!!ONB: ESAC (Essen Associative Code) Database: ALTDEU
!!!AMT: simple triple
!!!AIN: vox
!!!EED: Helmut Schaffrath
!!!EEV: 1.0
!!!AMD: Ionian
!!!URL-scan: https://rosdok.uni-rostock.de/mcrviewer/recordIdentifier/rosdok_ppn738218359/iview2/phys_0648.iview2?x=-495.6391625615763&y=1304.6995073892176&scale=0.4629418472063854&rotation=0&layout=singlePageLayout&logicalDiv=log_0018
!!!ENC: Anna Maria Matuszewska
!!!EEV: 2024/18/03
*-	*-
